lib/flags/m/LBY.svg

<svg xmlns="http://www.w3.org/2000/svg" fill="none" viewBox="0 0 20 15"><mask id="LBY_svg__a" width="20" height="15" x="0" y="0" mask-type="alpha" maskUnits="userSpaceOnUse"><path fill="#fff" d="M0 0H20V15H0z"/></mask><g fill-rule="evenodd" clip-rule="evenodd" mask="url(#LBY_svg__a)"><path fill="#55BA07" d="M0 11H20V15H0V11Z"/><path fill="#1D1D1D" d="M0 3.75H20V11.25H0V3.75Z"/><path fill="#E11C1B" d="M0 0H20V4H0V0Z"/><path fill="#fff" d="M9.87348 9.41621C8.75343 9.18471 8.46284 8.59863 8.47485 7.69462C8.47485 6.73805 8.97855 5.76982 9.86208 5.66397C10.7456 5.55812 11.4692 5.88769 11.8486 6.3476C11.5313 5.09916 10.4803 4.96261 9.67339 4.96261C8.45852 4.952 7.21252 5.87515 7.21252 7.61172C7.21252 9.12463 8.31081 10.2622 9.70847 10.2903C11.4558 10.2903 11.7293 9.08364 11.7796 8.67256C11.6785 8.74508 11.5845 8.83162 11.488 8.92045C11.1366 9.24391 10.7522 9.59783 9.87348 9.41621ZM12.6644 7.05701L11.837 7.31738L12.7636 7.67997L12.6346 8.65119L13.2626 7.98291L14.1737 8.17051L13.5581 7.45063L14.1031 6.71499L13.3421 6.87559L12.8044 6.26797L12.6644 7.05701Z"/></g></svg>

<svg xmlns="http://www.w3.org/2000/svg" fill="none" viewBox="0 0 20 15"><mask id="LBY_svg__a" width="20" height="15" x="0" y="0" maskUnits="userSpaceOnUse"><path fill="#fff" d="M0 0h20v15H0z"/></mask><g fill-rule="evenodd" clip-rule="evenodd" mask="url(#LBY_svg__a)"><path fill="#55BA07" d="M0 11h20v4H0v-4z"/><path fill="#1D1D1D" d="M0 3.75h20v7.5H0v-7.5z"/><path fill="#E11C1B" d="M0 0h20v4H0V0z"/><path fill="#fff" d="M9.873 9.416c-1.12-.231-1.41-.817-1.398-1.721 0-.957.504-1.925 1.387-2.031.884-.106 1.607.224 1.986.684-.317-1.249-1.368-1.385-2.175-1.385-1.214-.011-2.46.912-2.46 2.649 0 1.513 1.098 2.65 2.495 2.678 1.748 0 2.021-1.206 2.072-1.617-.101.072-.195.159-.292.247-.351.324-.736.678-1.615.496zm2.791-2.359l-.827.26.927.363-.13.971.629-.668.91.187-.615-.72.545-.735-.76.16-.539-.607-.14.789z"/></g></svg>
